tools/download-figma-icons/icons/outlined-medium/shield.svg

<svg width="24" height="24" viewBox="0 0 24 24" fill="none" xmlns="http://www.w3.org/2000/svg">
<path d="M21.2693 3.03845L12.2554 0.0300094C12.2554 0.0300094 12.1953 0.0300094 12.1653 0.022507C12.1127 0.00750234 12.0676 0 12.015 0C11.9624 0 11.9174 0.00750234 11.8723 0.0150047C11.8423 0.0150047 11.8122 0.0150047 11.7822 0.0300094L2.76079 3.03845C2.45281 3.14348 2.25 3.42857 2.25 3.75117V14.247C2.25 14.247 2.25 14.2995 2.25 14.3295C2.28005 14.6296 3.1589 21.6218 11.8122 23.9775C11.8723 23.9925 11.9399 24 12 24C12.0601 24 12.1277 23.9925 12.1878 23.9775C20.8411 21.6218 21.72 14.6296 21.75 14.3295C21.75 14.2995 21.75 14.277 21.75 14.247V3.75117C21.75 3.42857 21.5397 3.14348 21.2392 3.03845H21.2693ZM20.2777 14.2019C20.2026 14.6971 19.2111 20.4064 12.015 22.4695C4.78139 20.3989 3.82743 14.7571 3.75231 14.2019V4.29134L12.015 1.53048L20.2777 4.29134V14.2019Z" fill="black"/>
<path d="M11.0385 14.5842L8.04889 11.5007C7.75594 11.2006 7.28272 11.1931 6.98977 11.4857C6.6893 11.7708 6.68179 12.2509 6.97474 12.5435L10.5953 16.2647C10.738 16.4147 10.9333 16.4898 11.1361 16.4898C11.1512 16.4898 11.1737 16.4898 11.1887 16.4898C11.4141 16.4748 11.6169 16.3622 11.7446 16.1822L17.1379 8.67982C17.3782 8.34222 17.3031 7.87707 16.9651 7.62949C16.6271 7.38942 16.1539 7.46444 15.9135 7.80205L11.0385 14.5767V14.5842Z" fill="black"/>
</svg>

<svg width="24" height="24" viewBox="0 0 24 24" fill="none" xmlns="http://www.w3.org/2000/svg"><path d="M21.27 3.038 12.254.03s-.06 0-.09-.007a.522.522 0 0 0-.15-.023c-.053 0-.098.008-.143.015-.03 0-.06 0-.09.015l-9.02 3.008a.75.75 0 0 0-.511.713V14.33c.03.3.909 7.293 9.562 9.648a.803.803 0 0 0 .376 0c8.653-2.355 9.532-9.347 9.562-9.648V3.751a.76.76 0 0 0-.51-.713h.03Zm-.992 11.164c-.075.495-1.067 6.204-8.263 8.268-7.234-2.071-8.188-7.713-8.263-8.268v-9.91l8.263-2.762 8.263 2.761v9.91Z" fill="currentColor"/><path d="m11.039 14.584-2.99-3.083a.742.742 0 0 0-1.06-.015.74.74 0 0 0-.014 1.057l3.62 3.722c.143.15.338.225.541.225h.053a.738.738 0 0 0 .556-.308l5.393-7.502a.755.755 0 0 0-.173-1.05.756.756 0 0 0-1.051.172l-4.875 6.775v.007Z" fill="currentColor"/></svg>
